qtOfs/res/icons/editrename.svg

<svg width="160" xmlns="http://www.w3.org/2000/svg" height="160" viewBox="0 0 128 128">
<g fill="#1b100f">
<path opacity=".98" d="m82.12,27.18c2.77-2.29 5.09-5.1 7.98-7.25 2.77-.47 5.75-.42 8.38,.65 2.52,2.74 6.7,5.06 5.86,9.42 .66,3.28-1.6,5.6-3.99,7.37-17.88,17.78-35.73,35.6-53.54,53.44-2.88,2.76-5.67,5.61-8.21,8.69-1.76,.26-3.52,.56-5.27,.85-.91,1.09-1.81,2.19-2.7,3.3-1.85,.27-3.7,.51-5.57,.6 .27-.29 .82-.85 1.09-1.13 5.92-4.14 13.1-6.48 18.11-11.86 10.61-10.72 21.29-21.38 31.93-32.08 3.18-3.24 6.83-6.12 9.07-10.14 3.22-3.85 7.67-6.42 10.86-10.29 1.17-1.32 2.39-2.58 3.56-3.89 2.34-5.29-1.57-10.08-5.18-13.51-4.87-1.47-6.97,4.25-10.59,6.25-3.6,2.47-5.81,6.32-8.87,9.35-10.81,9.87-20.68,20.72-30.78,31.3-2.3,2.68-4.28,5.67-7.08,7.88-2.95,2.34-6.14,4.39-8.97,6.89 .13-.56 .38-1.67 .51-2.22 17.86-17.81 35.9-35.47 53.4-53.62z"/>
<path opacity=".98" d="m24.58,84.6c1.22-.52 2.42-1.05 3.63-1.58-.46,3.11-2.02,5.88-4.37,7.95-.11-2.15 .25-4.28 .74-6.37z"/>
</g>
<path fill="#9d3f3f" d="m83.91,27.6c3.62-2 5.72-7.72 10.59-6.25 3.61,3.43 7.52,8.22 5.18,13.51-.63,.11-1.87,.34-2.5,.45 .71-1.82 1.44-3.64 2.2-5.44-1.99-3.26-5.52-.37-8.33-.22-1.44-.3-2.81-.87-4.21-1.31-.73-.19-2.2-.56-2.93-.74z"/>
<path fill="#2b6336" d="m75.04,36.95c3.06-3.03 5.27-6.88 8.87-9.35-1.18,2.11-2.31,4.24-3.38,6.41 2.63,2.96 5.44,5.8 8.65,8.14 2.87-.23 4.65-3.02 6.67-4.8 .07,.35 .2,1.05 .27,1.4-3.19,3.87-7.64,6.44-10.86,10.29l.09-1c.77-3.72-2.96-5.95-5.22-8.22-1.31-1.43-3.32-1.25-5.07-1.4 0-.37-.02-1.1-.02-1.47z"/>
<path fill="#838b7e" d="m83.91,27.6c.73,.18 2.2,.55 2.93,.74l-.35,.48c-1.51,1.57-3.01,3.15-4.29,4.92 2.32,2.29 4.51,5.17 7.82,6.01 2.28-.19 3.36-2.45 4.68-3.99 .28,.39 .86,1.19 1.15,1.59-2.02,1.78-3.8,4.57-6.67,4.8-3.21-2.34-6.02-5.18-8.65-8.14 1.07-2.17 2.2-4.3 3.38-6.41z"/>
<path fill="#d46b6a" d="m86.84,28.34c1.4,.44 2.77,1.01 4.21,1.31 2.81-.15 6.34-3.04 8.33,.22-.76,1.8-1.49,3.62-2.2,5.44 .63-.11 1.87-.34 2.5-.45-1.17,1.31-2.39,2.57-3.56,3.89-.07-.35-.2-1.05-.27-1.4-.29-.4-.87-1.2-1.15-1.59-2.56-2.53-5.47-4.64-8.21-6.94l.35-.48z"/>
<path fill="#d5d1d0" d="m82.2,33.74c1.28-1.77 2.78-3.35 4.29-4.92 2.74,2.3 5.65,4.41 8.21,6.94-1.32,1.54-2.4,3.8-4.68,3.99-3.31-.84-5.5-3.72-7.82-6.01z"/>
<path opacity=".96" fill="#5a401d" d="m44.26,68.25c10.1-10.58 19.97-21.43 30.78-31.3 0,.37 .02,1.1 .02,1.47l.03,.84c-13.7,13.58-26.46,28.09-40.35,41.49-2.11,1.88-4.31,3.74-5.75,6.21-1.53,2.16-3.01,4.34-4.47,6.54l-.99-.72-.85-.61c.29-.3 .87-.9 1.16-1.2 2.35-2.07 3.91-4.84 4.37-7.95 2.83-2.5 6.02-4.55 8.97-6.89 2.8-2.21 4.78-5.2 7.08-7.88z"/>
<path fill="#a7b590" d="m75.06,38.42c1.75,.15 3.76-.03 5.07,1.4 2.26,2.27 5.99,4.5 5.22,8.22-1.44,.92-2.86,1.86-4.18,2.94 .51-1.26 1.08-2.54 1.19-3.91-.84-2.32-2.74-3.96-4.48-5.6-.9,.08-1.79,.17-2.69,.26-.03-.83-.07-1.65-.1-2.47l-.03-.84z"/>
<path fill="#b08b4b" d="m34.74,80.75c13.89-13.4 26.65-27.91 40.35-41.49 .03,.82 .07,1.64 .1,2.47-6.13,6.33-12.33,12.61-18.15,19.23-4.03,3.31-7.59,7.13-11.29,10.79-4.36,4.24-7.81,9.38-12.74,13.02-.97,.73-1.94,1.46-2.92,2.18l-1.1,.01c1.44-2.47 3.64-4.33 5.75-6.21z"/>
<path fill="#fee795" d="m75.19,41.73c.9-.09 1.79-.18 2.69-.26 1.74,1.64 3.64,3.28 4.48,5.6-.11,1.37-.68,2.65-1.19,3.91-5.29,5.02-10.11,10.51-15.38,15.56 .01-.49 .03-1.46 .04-1.95-3.85,2.09-6.49,5.67-9.73,8.51-3.75,3.29-7.32,6.78-11.23,9.9-.92-1.05-3.03-1.92-2.38-3.63 4.04-6.76 10.93-11.37 14.55-18.41 5.82-6.62 12.02-12.9 18.15-19.23z"/>
<path fill="#745c25" d="m81.17,50.98c1.32-1.08 2.74-2.02 4.18-2.94l-.09,1c-2.24,4.02-5.89,6.9-9.07,10.14-10.64,10.7-21.32,21.36-31.93,32.08-5.01,5.38-12.19,7.72-18.11,11.86 .18-.58 .54-1.75 .72-2.33 4.54-3.19 10.03-5.11 13.7-9.43 8.64-8.02 16.88-16.48 25.22-24.82 5.27-5.05 10.09-10.54 15.38-15.56z"/>
<path fill="#f8d477" d="m45.75,71.75c3.7-3.66 7.26-7.48 11.29-10.79-3.62,7.04-10.51,11.65-14.55,18.41-.65,1.71 1.46,2.58 2.38,3.63 3.91-3.12 7.48-6.61 11.23-9.9 3.24-2.84 5.88-6.42 9.73-8.51-.01,.49-.03,1.46-.04,1.95-8.34,8.34-16.58,16.8-25.22,24.82l-.86,.31c-.05-2.08 .05-4.17-.2-6.23-1.37-2.16-4.42-.68-6.5-.67 4.93-3.64 8.38-8.78 12.74-13.02z"/>
<path fill="#fee1bd" d="m33.01,84.77c2.08-.01 5.13-1.49 6.5,.67 .25,2.06 .15,4.15 .2,6.23-5.59,1.66-9.61,7.06-15.65,7.31 1.01-4.49 4.6-7.71 6.03-12.03 .98-.72 1.95-1.45 2.92-2.18z"/>
<path fill="#c89f76" d="m24.52,93.5c1.46-2.2 2.94-4.38 4.47-6.54l1.1-.01c-1.43,4.32-5.02,7.54-6.03,12.03 6.04-.25 10.06-5.65 15.65-7.31l.86-.31c-3.67,4.32-9.16,6.24-13.7,9.43-1.83,1.16-3.89,1.88-6,2.36-.6-3.69 1.9-6.68 3.65-9.65z"/>
<path opacity=".98" fill="#1f2020" d="m15.79,99.95c.15-3.33 3.52-4.94 5.52-7.15 .55,0 1.67-.01 2.22-.02-2.11,3.15-4.18,6.4-4.95,10.17 1.47,.83 2.94,1.65 4.42,2.46 1.53,1.69-.6,2.54-2.05,2.88-1.54,.25-3.03-.37-4.49-.77-.74-2.45-1-5.03-.67-7.57z"/>
<path opacity=".96" fill="#6d5740" d="m23.53,92.78l.99,.72c-1.75,2.97-4.25,5.96-3.65,9.65 2.11-.48 4.17-1.2 6-2.36-.18,.58-.54,1.75-.72,2.33-.27,.28-.82,.84-1.09,1.13-.51,.29-1.54,.87-2.06,1.16-1.48-.81-2.95-1.63-4.42-2.46 .77-3.77 2.84-7.02 4.95-10.17z"/>
</svg>

<?xml version="1.0" encoding="UTF-8" standalone="no"?>
<!-- Created with Inkscape (http://www.inkscape.org/) -->
<svg
   xmlns:svg="http://www.w3.org/2000/svg"
   xmlns="http://www.w3.org/2000/svg"
   version="1.0"
   width="128pt"
   height="128pt"
   viewBox="0 0 128 128"
   id="svg2">
  <defs
     id="defs55" />
  <g
     id="#1b100ffa">
    <path
       d="M 82.12,27.18 C 84.89,24.89 87.21,22.08 90.1,19.93 C 92.87,19.46 95.85,19.51 98.48,20.58 C 101,23.32 105.18,25.64 104.34,30 C 105,33.28 102.74,35.6 100.35,37.37 C 82.47,55.15 64.62,72.97 46.81,90.81 C 43.93,93.57 41.14,96.42 38.6,99.5 C 36.84,99.76 35.08,100.06 33.33,100.35 C 32.42,101.44 31.52,102.54 30.63,103.65 C 28.78,103.92 26.93,104.16 25.06,104.25 C 25.33,103.96 25.88,103.4 26.15,103.12 C 32.07,98.98 39.25,96.64 44.26,91.26 C 54.87,80.54 65.55,69.88 76.19,59.18 C 79.37,55.94 83.02,53.06 85.26,49.04 C 88.48,45.19 92.93,42.62 96.12,38.75 C 97.29,37.43 98.51,36.17 99.68,34.86 C 102.02,29.57 98.11,24.78 94.5,21.35 C 89.63,19.88 87.53,25.6 83.91,27.6 C 80.31,30.07 78.1,33.92 75.04,36.95 C 64.23,46.82 54.36,57.67 44.26,68.25 C 41.96,70.93 39.98,73.92 37.18,76.13 C 34.23,78.47 31.04,80.52 28.21,83.02 C 28.34,82.46 28.59,81.35 28.72,80.8 C 46.58,62.99 64.62,45.33 82.12,27.18 z"
       id="path5"
       style="opacity:0.98000004;fill:#1b100f" />
    <path
       d="M 24.58,84.6 C 25.8,84.08 27,83.55 28.21,83.02 C 27.75,86.13 26.19,88.9 23.84,90.97 C 23.73,88.82 24.09,86.69 24.58,84.6 z"
       id="path7"
       style="opacity:0.98000004;fill:#1b100f" />
  </g>
  <g
     id="#9d3f3ffe">
    <path
       d="M 83.91,27.6 C 87.53,25.6 89.63,19.88 94.5,21.35 C 98.11,24.78 102.02,29.57 99.68,34.86 C 99.05,34.97 97.81,35.2 97.18,35.31 C 97.89,33.49 98.62,31.67 99.38,29.87 C 97.39,26.61 93.86,29.5 91.05,29.65 C 89.61,29.35 88.24,28.78 86.84,28.34 C 86.11,28.15 84.64,27.78 83.91,27.6 z"
       id="path10"
       style="opacity:1;fill:#9d3f3f" />
  </g>
  <g
     id="#2b6336ff">
    <path
       d="M 75.04,36.95 C 78.1,33.92 80.31,30.07 83.91,27.6 C 82.73,29.71 81.6,31.84 80.53,34.01 C 83.16,36.97 85.97,39.81 89.18,42.15 C 92.05,41.92 93.83,39.13 95.85,37.35 C 95.92,37.7 96.05,38.4 96.12,38.75 C 92.93,42.62 88.48,45.19 85.26,49.04 L 85.35,48.04 C 86.12,44.32 82.39,42.09 80.13,39.82 C 78.82,38.39 76.81,38.57 75.06,38.42 C 75.06,38.05 75.04,37.32 75.04,36.95 z"
       id="path13"
       style="opacity:1;fill:#2b6336" />
  </g>
  <g
     id="#838b7efe">
    <path
       d="M 83.91,27.6 C 84.64,27.78 86.11,28.15 86.84,28.34 L 86.49,28.82 C 84.98,30.39 83.48,31.97 82.2,33.74 C 84.52,36.03 86.71,38.91 90.02,39.75 C 92.3,39.56 93.38,37.3 94.7,35.76 C 94.98,36.15 95.56,36.95 95.85,37.35 C 93.83,39.13 92.05,41.92 89.18,42.15 C 85.97,39.81 83.16,36.97 80.53,34.01 C 81.6,31.84 82.73,29.71 83.91,27.6 z"
       id="path16"
       style="opacity:1;fill:#838b7e" />
  </g>
  <g
     id="#d46b6afe">
    <path
       d="M 86.84,28.34 C 88.24,28.78 89.61,29.35 91.05,29.65 C 93.86,29.5 97.39,26.61 99.38,29.87 C 98.62,31.67 97.89,33.49 97.18,35.31 C 97.81,35.2 99.05,34.97 99.68,34.86 C 98.51,36.17 97.29,37.43 96.12,38.75 C 96.05,38.4 95.92,37.7 95.85,37.35 C 95.56,36.95 94.98,36.15 94.7,35.76 C 92.14,33.23 89.23,31.12 86.49,28.82 L 86.84,28.34 z"
       id="path19"
       style="opacity:1;fill:#d46b6a" />
  </g>
  <g
     id="#d5d1d0fe">
    <path
       d="M 82.2,33.74 C 83.48,31.97 84.98,30.39 86.49,28.82 C 89.23,31.12 92.14,33.23 94.7,35.76 C 93.38,37.3 92.3,39.56 90.02,39.75 C 86.71,38.91 84.52,36.03 82.2,33.74 z"
       id="path22"
       style="opacity:1;fill:#d5d1d0" />
  </g>
  <g
     id="#5a401df6">
    <path
       d="M 44.26,68.25 C 54.36,57.67 64.23,46.82 75.04,36.95 C 75.04,37.32 75.06,38.05 75.06,38.42 L 75.09,39.26 C 61.39,52.84 48.63,67.35 34.74,80.75 C 32.63,82.63 30.43,84.49 28.99,86.96 C 27.46,89.12 25.98,91.3 24.52,93.5 L 23.53,92.78 L 22.68,92.17 C 22.97,91.87 23.55,91.27 23.84,90.97 C 26.19,88.9 27.75,86.13 28.21,83.02 C 31.04,80.52 34.23,78.47 37.18,76.13 C 39.98,73.92 41.96,70.93 44.26,68.25 z"
       id="path25"
       style="opacity:0.95999995;fill:#5a401d" />
  </g>
  <g
     id="#a7b590ff">
    <path
       d="M 75.06,38.42 C 76.81,38.57 78.82,38.39 80.13,39.82 C 82.39,42.09 86.12,44.32 85.35,48.04 C 83.91,48.96 82.49,49.9 81.17,50.98 C 81.68,49.72 82.25,48.44 82.36,47.07 C 81.52,44.75 79.62,43.11 77.88,41.47 C 76.98,41.55 76.09,41.64 75.19,41.73 C 75.16,40.9 75.12,40.08 75.09,39.26 L 75.06,38.42 z"
       id="path28"
       style="opacity:1;fill:#a7b590" />
  </g>
  <g
     id="#b08b4bff">
    <path
       d="M 34.74,80.75 C 48.63,67.35 61.39,52.84 75.09,39.26 C 75.12,40.08 75.16,40.9 75.19,41.73 C 69.06,48.06 62.86,54.34 57.04,60.96 C 53.01,64.27 49.45,68.09 45.75,71.75 C 41.39,75.99 37.94,81.13 33.01,84.77 C 32.04,85.5 31.07,86.23 30.09,86.95 L 28.99,86.96 C 30.43,84.49 32.63,82.63 34.74,80.75 z"
       id="path31"
       style="opacity:1;fill:#b08b4b" />
  </g>
  <g
     id="#fee795fe">
    <path
       d="M 75.19,41.73 C 76.09,41.64 76.98,41.55 77.88,41.47 C 79.62,43.11 81.52,44.75 82.36,47.07 C 82.25,48.44 81.68,49.72 81.17,50.98 C 75.88,56 71.06,61.49 65.79,66.54 C 65.8,66.05 65.82,65.08 65.83,64.59 C 61.98,66.68 59.34,70.26 56.1,73.1 C 52.35,76.39 48.78,79.88 44.87,83 C 43.95,81.95 41.84,81.08 42.49,79.37 C 46.53,72.61 53.42,68 57.04,60.96 C 62.86,54.34 69.06,48.06 75.19,41.73 z"
       id="path34"
       style="opacity:1;fill:#fee795" />
  </g>
  <g
     id="#745c25fd">
    <path
       d="M 81.17,50.98 C 82.49,49.9 83.91,48.96 85.35,48.04 L 85.26,49.04 C 83.02,53.06 79.37,55.94 76.19,59.18 C 65.55,69.88 54.87,80.54 44.26,91.26 C 39.25,96.64 32.07,98.98 26.15,103.12 C 26.33,102.54 26.69,101.37 26.87,100.79 C 31.41,97.6 36.9,95.68 40.57,91.36 C 49.21,83.34 57.45,74.88 65.79,66.54 C 71.06,61.49 75.88,56 81.17,50.98 z"
       id="path37"
       style="opacity:1;fill:#745c25" />
  </g>
  <g
     id="#f8d477fe">
    <path
       d="M 45.75,71.75 C 49.45,68.09 53.01,64.27 57.04,60.96 C 53.42,68 46.53,72.61 42.49,79.37 C 41.84,81.08 43.95,81.95 44.87,83 C 48.78,79.88 52.35,76.39 56.1,73.1 C 59.34,70.26 61.98,66.68 65.83,64.59 C 65.82,65.08 65.8,66.05 65.79,66.54 C 57.45,74.88 49.21,83.34 40.57,91.36 L 39.71,91.67 C 39.66,89.59 39.76,87.5 39.51,85.44 C 38.14,83.28 35.09,84.76 33.01,84.77 C 37.94,81.13 41.39,75.99 45.75,71.75 z"
       id="path40"
       style="opacity:1;fill:#f8d477" />
  </g>
  <g
     id="#fee1bdff">
    <path
       d="M 33.01,84.77 C 35.09,84.76 38.14,83.28 39.51,85.44 C 39.76,87.5 39.66,89.59 39.71,91.67 C 34.12,93.33 30.1,98.73 24.06,98.98 C 25.07,94.49 28.66,91.27 30.09,86.95 C 31.07,86.23 32.04,85.5 33.01,84.77 z"
       id="path43"
       style="opacity:1;fill:#fee1bd" />
  </g>
  <g
     id="#c89f76ff">
    <path
       d="M 24.52,93.5 C 25.98,91.3 27.46,89.12 28.99,86.96 L 30.09,86.95 C 28.66,91.27 25.07,94.49 24.06,98.98 C 30.1,98.73 34.12,93.33 39.71,91.67 L 40.57,91.36 C 36.9,95.68 31.41,97.6 26.87,100.79 C 25.04,101.95 22.98,102.67 20.87,103.15 C 20.27,99.46 22.77,96.47 24.52,93.5 z"
       id="path46"
       style="opacity:1;fill:#c89f76" />
  </g>
  <g
     id="#1f2020f9">
    <path
       d="M 15.79,99.95 C 15.94,96.62 19.31,95.01 21.31,92.8 C 21.86,92.8 22.98,92.79 23.53,92.78 C 21.42,95.93 19.35,99.18 18.58,102.95 C 20.05,103.78 21.52,104.6 23,105.41 C 24.53,107.1 22.4,107.95 20.95,108.29 C 19.41,108.54 17.92,107.92 16.46,107.52 C 15.72,105.07 15.46,102.49 15.79,99.95 z"
       id="path49"
       style="opacity:0.98000004;fill:#1f2020" />
  </g>
  <g
     id="#6d5740f6">
    <path
       d="M 23.53,92.78 L 24.52,93.5 C 22.77,96.47 20.27,99.46 20.87,103.15 C 22.98,102.67 25.04,101.95 26.87,100.79 C 26.69,101.37 26.33,102.54 26.15,103.12 C 25.88,103.4 25.33,103.96 25.06,104.25 C 24.55,104.54 23.52,105.12 23,105.41 C 21.52,104.6 20.05,103.78 18.58,102.95 C 19.35,99.18 21.42,95.93 23.53,92.78 z"
       id="path52"
       style="opacity:0.95999995;fill:#6d5740" />
  </g>
</svg>
